Numix-GalliumOS/64/mimetypes/gnome-mime-text-x-makefile.svg

<svg xmlns="http://www.w3.org/2000/svg" xmlns:xlink="http://www.w3.org/1999/xlink" width="64px" height="64px" viewBox="0 0 64 64" version="1.1">
<g id="surface1">
<path style=" stroke:none;fill-rule:nonzero;fill:rgb(86.27451%,86.27451%,86.27451%);fill-opacity:1;" d="M 10.671875 0 C 9.296875 0 8 1.355469 8 2.789062 L 8 61.210938 C 8 62.566406 9.375 64 10.671875 64 L 53.328125 64 C 54.625 64 56 62.566406 56 61.210938 L 56 18 L 38 0 Z M 10.671875 0 "/>
<path style=" stroke:none;fill-rule:nonzero;fill:rgb(0%,0%,0%);fill-opacity:0.196078;" d="M 42 18 L 56 32 L 56 18 Z M 42 18 "/>
<path style=" stroke:none;fill-rule:nonzero;fill:rgb(100%,100%,100%);fill-opacity:0.392157;" d="M 38 0 L 55.984375 18 L 40.757812 18 C 39.410156 18 38 16.574219 38 15.226562 Z M 38 0 "/>
<path style=" stroke:none;fill-rule:nonzero;fill:rgb(53.333333%,53.333333%,53.333333%);fill-opacity:1;" d="M 40.507812 29.414062 C 42.015625 29.875 40.695312 32.03125 42.859375 33.085938 C 45.328125 34.289062 46.554688 31.242188 48.039062 33.421875 C 49.523438 35.59375 45.992188 35.257812 46.085938 37.8125 C 46.1875 40.367188 49.6875 39.828125 48.375 42.085938 C 47.0625 44.335938 45.601562 41.375 43.234375 42.726562 C 40.859375 44.078125 43.132812 46.578125 40.335938 46.664062 C 37.539062 46.75 39.617188 44.125 37.140625 42.914062 C 34.671875 41.710938 33.445312 44.757812 31.960938 42.585938 C 30.476562 40.40625 34.007812 40.75 33.914062 38.1875 C 33.8125 35.632812 30.3125 36.171875 31.625 33.921875 C 32.9375 31.664062 34.398438 34.625 36.765625 33.273438 C 39.140625 31.921875 36.867188 29.421875 39.664062 29.335938 C 40.015625 29.328125 40.289062 29.34375 40.507812 29.414062 Z M 40.476562 35.921875 C 39.234375 35.679688 38.007812 36.414062 37.742188 37.5625 C 37.476562 38.703125 38.273438 39.835938 39.523438 40.078125 C 40.765625 40.320312 41.992188 39.59375 42.257812 38.445312 C 42.523438 37.296875 41.726562 36.164062 40.476562 35.921875 Z M 40.476562 35.921875 "/>
<path style=" stroke:none;fill-rule:nonzero;fill:rgb(53.333333%,53.333333%,53.333333%);fill-opacity:1;" d="M 28.507812 18.742188 C 30.015625 19.203125 28.695312 21.359375 30.859375 22.414062 C 33.328125 23.625 34.554688 20.578125 36.039062 22.75 C 37.523438 24.921875 33.992188 24.585938 34.085938 27.148438 C 34.1875 29.703125 37.6875 29.15625 36.375 31.414062 C 35.0625 33.671875 33.601562 30.710938 31.234375 32.0625 C 28.859375 33.414062 31.132812 35.914062 28.335938 36 C 25.539062 36.078125 27.617188 33.460938 25.140625 32.25 C 22.671875 31.046875 21.445312 34.085938 19.960938 31.914062 C 18.476562 29.742188 22.007812 30.078125 21.914062 27.523438 C 21.8125 24.96875 18.3125 25.507812 19.625 23.25 C 20.9375 20.992188 22.398438 23.953125 24.765625 22.601562 C 27.140625 21.25 24.867188 18.75 27.664062 18.671875 C 28.015625 18.65625 28.289062 18.679688 28.507812 18.742188 Z M 28.476562 25.257812 C 27.234375 25.007812 26.007812 25.742188 25.742188 26.890625 C 25.476562 28.039062 26.273438 29.171875 27.523438 29.414062 C 28.765625 29.65625 29.992188 28.921875 30.257812 27.773438 C 30.523438 26.625 29.726562 25.5 28.476562 25.257812 Z M 28.476562 25.257812 "/>
<path style=" stroke:none;fill-rule:nonzero;fill:rgb(53.333333%,53.333333%,53.333333%);fill-opacity:1;" d="M 24.507812 33.414062 C 26.015625 33.875 24.695312 36.03125 26.859375 37.085938 C 29.328125 38.289062 30.554688 35.242188 32.039062 37.421875 C 33.523438 39.59375 29.992188 39.257812 30.085938 41.8125 C 30.1875 44.367188 33.6875 43.828125 32.375 46.085938 C 31.0625 48.335938 29.601562 45.375 27.234375 46.726562 C 24.859375 48.078125 27.132812 50.578125 24.335938 50.664062 C 21.539062 50.75 23.617188 48.125 21.140625 46.914062 C 18.671875 45.710938 17.445312 48.757812 15.960938 46.585938 C 14.476562 44.40625 18.007812 44.75 17.914062 42.1875 C 17.8125 39.632812 14.3125 40.171875 15.625 37.921875 C 16.9375 35.664062 18.398438 38.625 20.765625 37.273438 C 23.140625 35.921875 20.867188 33.421875 23.664062 33.335938 C 24.015625 33.328125 24.289062 33.34375 24.507812 33.414062 Z M 24.476562 39.921875 C 23.234375 39.679688 22.007812 40.414062 21.742188 41.5625 C 21.476562 42.703125 22.273438 43.835938 23.523438 44.078125 C 24.765625 44.320312 25.992188 43.59375 26.257812 42.445312 C 26.523438 41.296875 25.726562 40.164062 24.476562 39.921875 Z M 24.476562 39.921875 "/>
</g>
</svg>

<svg xmlns="http://www.w3.org/2000/svg" viewBox="0 0 64 64">
 <path d="m 10.672 0 c -1.375 0 -2.672 1.355 -2.672 2.789 l 0 58.42 c 0 1.355 1.375 2.789 2.672 2.789 l 42.656 0 c 1.297 0 2.672 -1.434 2.672 -2.789 l 0 -43.21 -18 -18 m -27.328 0" style="fill:#dcdcdc;fill-opacity:1;stroke:none;fill-rule:nonzero"/>
 <path d="m 42 18 14 14 0 -14 z m 0 0" style="fill:#000;fill-opacity:0.196;stroke:none;fill-rule:nonzero"/>
 <path d="m 38 0 17.984 18 -15.227 0 c -1.348 0 -2.758 -1.426 -2.758 -2.773 m 0 -15.227" style="fill:#fff;fill-opacity:0.392;stroke:none;fill-rule:nonzero"/>
 <path d="m 40.508 29.414 c 1.508 0.461 0.188 2.617 2.352 3.672 2.469 1.203 3.695 -1.844 5.18 0.336 1.484 2.172 -2.047 1.836 -1.953 4.391 0.102 2.555 3.602 2.02 2.289 4.273 -1.313 2.25 -2.773 -0.711 -5.141 0.641 -2.375 1.352 -0.102 3.852 -2.898 3.938 -2.797 0.086 -0.719 -2.539 -3.195 -3.75 -2.469 -1.203 -3.695 1.844 -5.18 -0.328 c -1.484 -2.18 2.047 -1.836 1.953 -4.398 -0.102 -2.555 -3.602 -2.02 -2.289 -4.266 c 1.313 -2.258 2.773 0.703 5.141 -0.648 2.375 -1.352 0.102 -3.852 2.898 -3.938 0.352 -0.008 0.625 0.008 0.844 0.078 z m -0.031 6.508 c -1.242 -0.242 -2.469 0.492 -2.734 1.641 -0.266 1.141 0.531 2.273 1.781 2.516 1.242 0.242 2.469 -0.484 2.734 -1.633 0.266 -1.148 -0.531 -2.281 -1.781 -2.523 z m 0 0" style="fill:#888;fill-opacity:1;stroke:none;fill-rule:nonzero"/>
 <path d="m 28.508 18.742 c 1.508 0.461 0.188 2.617 2.352 3.672 2.469 1.211 3.695 -1.836 5.18 0.336 1.484 2.172 -2.047 1.836 -1.953 4.398 0.102 2.555 3.602 2.01 2.289 4.266 -1.313 2.258 -2.773 -0.703 -5.141 0.648 -2.375 1.352 -0.102 3.852 -2.898 3.938 -2.797 0.078 -0.719 -2.539 -3.195 -3.75 -2.469 -1.203 -3.695 1.836 -5.18 -0.336 -1.484 -2.172 2.047 -1.836 1.953 -4.391 c -0.102 -2.555 -3.602 -2.02 -2.289 -4.273 c 1.313 -2.258 2.773 0.703 5.141 -0.648 2.375 -1.352 0.102 -3.852 2.898 -3.93 0.352 -0.016 0.625 0.008 0.844 0.07 z m -0.031 6.516 c -1.242 -0.25 -2.469 0.484 -2.734 1.633 -0.266 1.148 0.531 2.281 1.781 2.523 1.242 0.242 2.469 -0.492 2.734 -1.641 c 0.266 -1.148 -0.531 -2.273 -1.781 -2.516 m 0 0" style="fill:#888;fill-opacity:1;stroke:none;fill-rule:nonzero"/>
 <path d="m 24.508 33.414 c 1.508 0.461 0.188 2.617 2.352 3.672 2.469 1.203 3.695 -1.844 5.18 0.336 1.484 2.172 -2.047 1.836 -1.953 4.391 0.102 2.555 3.602 2.02 2.289 4.273 -1.313 2.25 -2.773 -0.711 -5.141 0.641 -2.375 1.352 -0.102 3.852 -2.898 3.938 -2.797 0.086 -0.719 -2.539 -3.195 -3.75 -2.469 -1.203 -3.695 1.844 -5.18 -0.328 c -1.484 -2.18 2.047 -1.836 1.953 -4.398 -0.102 -2.555 -3.602 -2.02 -2.289 -4.266 c 1.313 -2.258 2.773 0.703 5.141 -0.648 2.375 -1.352 0.102 -3.852 2.898 -3.938 0.352 -0.008 0.625 0.008 0.844 0.078 z m -0.031 6.508 c -1.242 -0.242 -2.469 0.492 -2.734 1.641 -0.266 1.141 0.531 2.273 1.781 2.516 1.242 0.242 2.469 -0.484 2.734 -1.633 0.266 -1.148 -0.531 -2.281 -1.781 -2.523 z m 0 0" style="fill:#888;fill-opacity:1;stroke:none;fill-rule:nonzero"/>
</svg>
